dist/svg/desktop-hourglass.svg

<!-- Generated by Trend Micro Style Portal -->
<svg version="1.1" xmlns="http://www.w3.org/2000/svg" width="16" height="16" viewBox="0 0 16 16">
  <title>desktop-hourglass</title>
  <path fill="rgb(34,34,34)" d="M15 9.38v-0.38h1v-1h-8v1h1v0.38c0.009 1.128 0.639 2.107 1.564 2.612l0.016 0.008 0.23 0.13c-0.722 0.334-1.282 0.913-1.582 1.63l-0.008 0.021c0 0.070 0 0.15-0.070 0.22-0.078 0.259-0.131 0.559-0.149 0.869l-0.001 0.011v0.12h-1v1h8v-1h-1v-0.12c-0.002-1.225-0.737-2.278-1.791-2.742l-0.019-0.008 0.23-0.12c0.944-0.515 1.575-1.498 1.58-2.629v-0.001zM14 14.88v0.12h-4v-0.12c0-1.105 0.895-2 2-2s2 0.895 2 2v0zM13.16 11c-0.322 0.232-0.725 0.371-1.16 0.371-1.101 0-1.995-0.89-2-1.99v-0.381h4v0.38c-0.003 0.666-0.331 1.255-0.834 1.616l-0.006 0.004zM2 9h5v5h-4.5c-0.274-0.003-0.495-0.226-0.495-0.5 0-0.182 0.097-0.341 0.243-0.429l0.002-0.001 3.75-1.57v-0.5h-5c-0.552 0-1-0.448-1-1v0-9c0-0.552 0.448-1 1-1v0h12c0.552 0 1 0.448 1 1v0 6h-2v-5h-10z"></path>
</svg>

<svg width="16" height="16" viewBox="0 0 16 16" fill="rgb(34, 34, 34)" xmlns="http://www.w3.org/2000/svg"><title>desktop-hourglass</title><path d="M15 9.38V9H16V8H8V9H9V9.38C9.009 10.508 9.639 11.487 10.564 11.992L10.58 12L10.81 12.13C10.088 12.464 9.528 13.043 9.228 13.76L9.22 13.781C9.22 13.851 9.22 13.931 9.15 14.001C9.072 14.26 9.019 14.56 9.001 14.87L9 14.881V15.001H8V16.001H16V15.001H15V14.881C14.998 13.656 14.263 12.603 13.209 12.139L13.19 12.131L13.42 12.011C14.364 11.496 14.995 10.513 15 9.382V9.38ZM14 14.88V15H10V14.88C10 13.775 10.895 12.88 12 12.88C13.105 12.88 14 13.775 14 14.88ZM13.16 11C12.838 11.232 12.435 11.371 12 11.371C10.899 11.371 10.005 10.481 10 9.381V9H14V9.38C13.997 10.046 13.669 10.635 13.166 10.996L13.16 11ZM2 9H7V14H2.5C2.226 13.997 2.005 13.774 2.005 13.5C2.005 13.318 2.102 13.159 2.248 13.071L2.25 13.07L6 11.5V11H1C0.448 11 0 10.552 0 10V1C0 0.448 0.448 0 1 0H13C13.552 0 14 0.448 14 1V7H12V2H2V9Z" fill="rgb(34, 34, 34)" fill-opacity="1.00"/></svg>
